!!!COM: Henri Reber
!!!CNT: Francais
!!!TXO: Francais
!!!OTL: Chanson du Duc Charles D'Orle/ans
!!!LYR: Charles d'Orle/ans
!!!ODT: 1845/
!!!ENC: Jacob Pegg
!!!YOR: Romantic French Song 1830-1870, David Tunley, ed., New York: Garland Publishing, Inc., 1995, vol. 3
!!NB: Vocal melody and text only encoded.
**kern	**silbe
*clef G2	*
*k[d#]	*
*M6/8	*
=5	=5
{4g	{Je
8a	ne
(8b	pri-
8ee)	|
8dd	-se
=6	=6
4.dd	point
16ccq	|
16ddq	|
(8cc	tels
8b)	|
8cc	bai-
=7	=7
4b	-sers
8dd	Qui
4a	sont
8b	don-
=8	=8
4g	-ne/s
8g	par
4cc	con-
8cc	-te-
=9	=9
4.b	-nan-
4b}	-ce,}
8r	.
=10	=10
{4.a	{Ou\
4g	par
8g	ma-
=11	=11
4f#	-nie\-
8g	-re
4a	d'ac-
8b	-coin-
=12	=12
4.a	-tan-
4a}	-ce;}
8r	.
=13	=13
{4b	{trop
8cc#	de
4dd	gens
8ee	en
=14	=14
[4.dd	sont
8dd]	|
8ee	pri-
8cc#	-son-
=15	=15
4.dd}	-niers:}
4r	.
8r	.
=16	=16
2.r	.
=17	=17
{4a	{On
8a	en
4a	peut
8b	a-
=18	=18
4.cc	-voir
4ee	par
8ee	mil-
=19	=19
4.b}	-liers:}
4r	.
{8b	{A
=20	=20
bq	bon
4ee	|
8dd#	mar-
[4.b	-che/,
=21	=21
4.b]	|
8ddn	grand'
8cc	a-
8b	-bon-
=22	=22
[2.b	-dan-
=23	=23
4.b]	|
4.a}	-ce.}
=24	=24
{4g	{Je
8a	ne
(8b	pri-
8ee)	|
8dd	-se
=25	=25
4.dd	point
16ccq	tels
16ddq	|
(8cc	|
8b)	|
8cc	bai-
=26	=26
4b	-sers
8dd	Qui
4a	sont
8b	don-
=27	=27
4g	-ne/s
8g	par
4cc	con-
8cc	-te-
=28	=28
2.b	-nan-
=29	=29
4b}	-ce.}
8r	.
4r	.
8r	.
=30	=30
{4.cc	{Mais,
8r	.
8ee	sa-
8dd	-vez~
=31	=31
4dd	~vous
8cc	les-
(8cc	-quels
8ffn)	|
8a	sont
=32	=32
[2.g	chers?
=33	=33
2.g]}	|}
=34	=34
2.r	.
=35	=35
{4cc	{Les
8cc	pri-
[4.a	-ve/s
=36	=36
4.a_	|
4a]	|
8a	ve-
=37	=37
4.b	-nant
4cc	par
8cc	plai-
=38	=38
2.dd	-san-
=39	=39
4dd}	-ce.}
8r	.
4r	.
8r	.
=40	=40
{4dd	{Les
8ee	pri-
[4.cc	-ses
=41	=41
4.cc]}	|}
4r	.
{8cc	{ve-
=42	=42
4.dd	-nant
4ee	par
8ee	plai-
=43	=43
[2.gg	-san-
=44	=44
(4gg]	|
8b)	|
4.b}	-ce.}
=45	=45
2.r	.
=46	=46
{4.ee	Tous
8.dd	aut-
16cc	-res
8b	ne
=47	=47
4.cc	sont,
(8cc	sans
8ee)	|
8cc	dou-
=48	=48
4.b	-tan-
4b}	-ce,}
8r	.
=49	=49
{4.a	{Qui
(8b	pour
8cc)	|
8dd	fe^-
=50	=50
4.cc	-ter
4b	e\-
8a	-tran-
=51	=51
2.a}	-gers...}
=52	=52
{4g	{Je
8a	ne
(8b	pri-
8ee)	|
8dd	-se
=53	=53
4.dd	point
16ccq	|
16ddq	|
(8cc	tels
8b)	|
8cc	bai-
=54	=54
4b	-sers
8dd	Qui
4a	sont
8b	don-
=55	=55
4g	-ne/s
8g	par
4cc	con-
8cc	-te-
=56	=56
2.b	-nan-
=57	=57
4.b}	-ce.}
4r	.
8r	.
=58	=58
{4g	{Je
8a	ne
(8b	pri-
8ee)	|
8dd	-se
=59	=59
(4dd	point
8gg)	|
(8ff#	tels
8gg)	|
8ee	bai-
=60	=60
4dd	-sers
8ee	Qui
4dd	sont
8cc	don-
=61	=61
4b	-ne/s
8a	par
4b	con-
8cc	-te-
=62	=62
(4.b	-nan-
bq	|
4a	|
8g)	|
=63	=63
4.g}	-ce!}
4r	.
8r	.
*-	*-
